lib/logo_tmp/nrk-logo-nrk-p2-title-below.svg

<svg width="35" height="41" viewBox="0 0 35 41" fill="none" xmlns="http://www.w3.org/2000/svg">
<path d="M6.10352e-05 18.0006V6.00169H3.93725V18.0006H6.10352e-05ZM9.29387 7.91138L11.5581 18.0006H7.24923L4.54555 6.00169H6.96224C7.51641 5.9945 8.05412 6.18985 8.47456 6.55099C8.89568 6.89698 9.18501 7.3773 9.29387 7.91138ZM12.1496 18.0006V6.00169H16.0868V18.0006H12.1496ZM19.0605 10.5647C18.6363 10.5688 18.2188 10.4578 17.8526 10.2436C17.4913 10.0347 17.1912 9.73456 16.9823 9.3732C16.7678 9.00693 16.6568 8.58936 16.661 8.16492C16.6562 7.74306 16.7673 7.32798 16.9823 6.96503C17.1934 6.60759 17.4932 6.3107 17.8526 6.10312C18.2189 5.88911 18.6363 5.77812 19.0605 5.78199C19.4823 5.77744 19.8972 5.88853 20.2603 6.10312C20.6161 6.31252 20.9127 6.60916 21.1221 6.96503C21.3369 7.32808 21.448 7.7431 21.4434 8.16492C21.4473 8.58933 21.3363 9.00683 21.1221 9.3732C20.9149 9.73298 20.618 10.0329 20.2603 10.2436C19.8972 10.4586 19.4819 10.5697 19.06 10.5647H19.0605ZM22.0517 18.0006V6.00169H25.9892V18.0006H22.0517ZM30.9738 12.5588C30.9849 12.5705 31.0693 12.7085 31.2272 12.9729C31.3851 13.2373 31.5907 13.5753 31.844 13.9869C32.0975 14.3983 32.3649 14.8349 32.6464 15.2966C32.9278 15.7583 33.1927 16.195 33.4409 16.6064C33.6882 17.0178 33.9698 17.4825 34.2858 18.0006H29.9599C29.6893 17.5612 29.4442 17.1641 29.2245 16.8092C29.0049 16.4543 28.7714 16.0712 28.5239 15.66C28.2759 15.2491 28.0307 14.8491 27.7883 14.4601C27.5459 14.071 27.3376 13.7302 27.1633 13.4377C26.9883 13.1449 26.8671 12.9477 26.7997 12.8461C26.6326 12.594 26.5337 12.3029 26.5127 12.0011C26.5295 11.7115 26.6227 11.4316 26.7828 11.1897C26.8504 11.077 26.9743 10.877 27.1546 10.5897C27.3348 10.3024 27.5461 9.96166 27.7883 9.56733C28.0305 9.173 28.2757 8.77021 28.5239 8.35898C28.7721 7.94775 29.0056 7.56184 29.2245 7.20131C29.4446 6.84115 29.6897 6.44119 29.9599 6.00142H34.2858L30.9397 11.4601C30.8361 11.6222 30.7778 11.8089 30.7707 12.0011C30.7818 12.2029 30.8523 12.3969 30.9732 12.5588H30.9738Z" fill="white"/>
<path d="M8.16013 24.5543C7.95222 24.2336 7.68503 23.9553 7.37286 23.7343C7.02513 23.4913 6.63894 23.3085 6.23039 23.1935C5.7343 23.0568 5.22119 22.9915 4.70662 22.9994H0V34.9993H1.7777V30.6895H4.84233C5.53388 30.6999 6.21632 30.5311 6.82291 30.1994C7.40428 29.8778 7.88708 29.4045 8.21965 28.8301C8.57622 28.1962 8.75465 27.478 8.73605 26.7512C8.73752 26.3585 8.69214 25.967 8.60089 25.585C8.51278 25.2192 8.36379 24.8709 8.16013 24.5543ZM6.58558 28.1966C6.35828 28.553 6.02344 28.8283 5.62933 28.9825C5.15098 29.1632 4.64198 29.2493 4.1307 29.236H1.77742V24.4698H4.36802C4.86278 24.4512 5.35521 24.5465 5.80713 24.7484C6.16654 24.9218 6.46034 25.2063 6.6449 25.5597C6.84063 25.956 6.9366 26.394 6.92452 26.8357C6.94401 27.3123 6.82637 27.7845 6.58558 28.1966Z" fill="white"/>
<path d="M12.1844 33.5456C12.4525 33.3163 12.7279 33.0774 13.0191 32.8188C13.4254 32.4584 13.8346 32.0669 14.2466 31.6442C14.6586 31.2214 15.0508 30.7821 15.4232 30.3262C15.7851 29.8848 16.1161 29.419 16.4137 28.9321C16.6917 28.4796 16.9188 27.9977 17.0908 27.4954C17.2506 27.0331 17.3336 26.5479 17.3364 26.0588C17.3444 25.6022 17.252 25.1494 17.0655 24.7324C16.8807 24.3385 16.6086 23.9917 16.2697 23.7183C15.882 23.4115 15.4355 23.1871 14.9577 23.0588C14.3704 22.8986 13.7633 22.8218 13.1545 22.8307C12.7601 22.8297 12.3664 22.8636 11.9779 22.9321C11.6084 22.9974 11.2457 23.0965 10.8943 23.2282C10.5593 23.3533 10.2339 23.5029 9.92086 23.6758L10.141 25.1462C10.4091 24.9667 10.6957 24.8166 10.996 24.6983C11.3221 24.5674 11.6592 24.4656 12.0033 24.394C12.3541 24.3208 12.7115 24.2841 13.0699 24.2845C13.4452 24.2768 13.8195 24.3281 14.1789 24.4363C14.4652 24.5238 14.7283 24.674 14.9492 24.8758C15.1481 25.061 15.3015 25.2894 15.3978 25.5434C15.4963 25.8112 15.545 26.0947 15.5417 26.38C15.536 26.8589 15.4384 27.3322 15.254 27.7743C15.0397 28.2936 14.767 28.7869 14.4413 29.2448C14.062 29.7828 13.6492 30.2965 13.2054 30.7828C12.7313 31.3067 12.215 31.8306 11.6563 32.3546C11.0976 32.8785 10.5191 33.4109 9.92086 33.9518L10.141 34.9996H17.4718L17.675 33.5458L12.1844 33.5456Z" fill="white"/>
</svg>

<svg xmlns="http://www.w3.org/2000/svg" viewBox="0 0 35 41"><path fill="#fff" d="M0 18V6.003h3.937V18H0ZM9.294 7.912l2.264 10.09H7.25L4.546 6h2.416a2.276 2.276 0 0 1 1.513.55c.42.346.71.826.819 1.36Zm2.856 10.09V6h3.937v12H12.15Zm6.91-7.436a2.383 2.383 0 0 1-2.4-2.4 2.303 2.303 0 0 1 .322-1.2 2.412 2.412 0 0 1 3.278-.862c.356.21.653.506.862.862.215.363.326.778.321 1.2a2.4 2.4 0 0 1-1.183 2.079 2.303 2.303 0 0 1-1.2.32ZM22.053 18V6h3.937v12h-3.937Zm8.922-5.442c.01.011.095.15.253.414s.364.602.617 1.014a327.152 327.152 0 0 1 1.597 2.62c.247.41.529.876.845 1.394H29.96c-.27-.44-.516-.837-.736-1.192-.22-.355-.453-.738-.7-1.149-.248-.41-.493-.81-.736-1.2-.242-.389-.45-.73-.625-1.022-.175-.293-.296-.49-.363-.592a1.75 1.75 0 0 1-.287-.845c.016-.29.11-.57.27-.811.067-.113.191-.313.372-.6a182.106 182.106 0 0 0 1.37-2.23c.247-.412.48-.798.7-1.159l.735-1.2h4.326l-3.346 5.46a1.078 1.078 0 0 0-.17.54c.012.202.082.396.203.558ZM8.16 24.554a3.013 3.013 0 0 0-.787-.82 3.785 3.785 0 0 0-1.143-.54 5.423 5.423 0 0 0-1.523-.195H0v12h1.778v-4.31h3.064a4.003 4.003 0 0 0 1.98-.49A3.662 3.662 0 0 0 8.22 28.83a4.03 4.03 0 0 0 .516-2.079 4.94 4.94 0 0 0-.135-1.166 3.359 3.359 0 0 0-.44-1.03Zm-1.574 3.643a1.997 1.997 0 0 1-.957.786 3.95 3.95 0 0 1-1.498.253H1.777V24.47h2.591a3.23 3.23 0 0 1 1.44.278c.359.174.652.458.837.812.196.396.292.834.28 1.276.019.476-.099.949-.34 1.36ZM12.184 33.546c.269-.23.544-.469.835-.727.406-.36.816-.752 1.228-1.175a20.18 20.18 0 0 0 1.176-1.318c.362-.441.693-.907.99-1.394.279-.452.506-.934.678-1.437.16-.462.243-.947.245-1.436a3.115 3.115 0 0 0-.27-1.327 2.868 2.868 0 0 0-.796-1.014 3.632 3.632 0 0 0-1.312-.66 6.492 6.492 0 0 0-1.803-.227 6.678 6.678 0 0 0-1.177.101c-.37.065-.732.165-1.084.296-.335.125-.66.275-.973.448l.22 1.47c.268-.18.555-.33.855-.448.326-.13.663-.232 1.007-.304.351-.073.708-.11 1.067-.11.375-.007.75.044 1.109.152.286.088.55.238.77.44.2.185.353.413.449.667.098.268.147.552.144.837a3.737 3.737 0 0 1-.288 1.394 7.421 7.421 0 0 1-.813 1.47c-.379.539-.792 1.053-1.236 1.539-.474.524-.99 1.048-1.549 1.572-.558.524-1.137 1.056-1.735 1.597L10.14 35h7.33l.204-1.454h-5.49Z"/></svg>
